X: 13719
T: Forbes Leith
R: reel
M: 4/4
K: Gminor
B,A,B,D FBdc|BABG FDB,D|C=B,CE Gced|cBAG FEDC|
B,A,B,D FBdc|BABG FDB,D|EGcd ecgf|f=e_ec AfeA||
B2 AB dBAB|fBgB fBAB|F2 =EF AFEF|cFeF dFcF|
B2 AB dBAB|fBgB fBAB|EGce DFBd|dcBA B4||

